X:130
T:Ducks On the Millpond
R:Reel
M:C|
L:1/8
N:Transcribed by Bruce Thomson
H:Kenny Baker â€“ Grassy Fiddle Blues
K:Amix
|:ea2ba3b|aged eg3|Bdga bgag|ed (3efg a4|Aceg abag|
edef gage|dged BAGA|BGAGF2A2-|ABAG A4:||:A,CEA FAAc|
(3BcB A2 B4|G,B,DG EFGA|BGAGF2A2|A,CEA FAAc|(3BcB A2B3c|dBGA BGAG|
F2E2F2A2-|ABA=G A4:||:e2Ae (3cec Ad|BG2dBG2B|e2Ae (3cec AF|
EGBe (3cec A2|e2Ae (3cec Ad|BG2dBG2B|ABcd efgf|edc2A4:|

